source/assets/img/share/icon_share_facebook.svg

<?xml version="1.0" encoding="UTF-8" standalone="no"?>
<svg width="40px" height="40px" viewBox="0 0 40 40" version="1.1" xmlns="http://www.w3.org/2000/svg" xmlns:xlink="http://www.w3.org/1999/xlink">
    <!-- Generator: Sketch 42 (36781) - http://www.bohemiancoding.com/sketch -->
    <desc>Created with Sketch.</desc>
    <defs>
        <rect id="path-1" x="0" y="0" width="40" height="40" rx="20"></rect>
    </defs>
    <g id="Page-1" stroke="none" stroke-width="1" fill="none" fill-rule="evenodd">
        <g id="Group-7">
            <g id="Rectangle-1254-Copy-6">
                <use fill="#3464A5" xlink:href="#path-1"></use>
            </g>
            <path d="M25,16.459177 L21.5210303,16.459177 L21.5210303,14.9660353 C21.5210303,14.2637492 22.0052168,14.0999347 22.3459407,14.0999347 L24.7815455,14.0999347 L24.7815455,11.0101894 L21.252853,11 C18.0526573,11 17.4453864,13.3035924 17.4453864,14.7779229 L17.4453864,16.459177 L15,16.459177 L15,19.5943828 L17.4453864,19.5943828 L17.4453864,29 L21.5210303,29 L21.5210303,19.5943828 L24.6600913,19.5943828 L25,16.459177 Z" id="Fill-1" fill="#FFFFFF"></path>
        </g>
    </g>
</svg>

<svg width="40" height="40" viewBox="0 0 40 40" xmlns="http://www.w3.org/2000/svg" xmlns:xlink="http://www.w3.org/1999/xlink"><defs><rect id="a" width="40" height="40" rx="20"/></defs><g fill="none" fill-rule="evenodd"><use fill="#3464A5" xlink:href="#a"/><path d="M25 16.46h-3.479v-1.494c0-.702.484-.866.825-.866h2.436v-3.09l-3.53-.01c-3.2 0-3.807 2.304-3.807 3.778v1.681H15v3.135h2.445V29h4.076v-9.406h3.14L25 16.46z" fill="#FFF"/></g></svg>
